icons/core/bell-slash.svg

<svg width="32" height="32" viewBox="0 0 32 32" fill="none" xmlns="http://www.w3.org/2000/svg">
<path fill-rule="evenodd" clip-rule="evenodd" d="M28.793 30.2071L23.5858 25L21.0001 25C21.0001 27.7614 18.7615 30 16.0001 30C13.2387 30 11.0001 27.7614 11.0001 25L5.00008 25C3.89551 25 3.00008 24.1046 3.00008 23V20.4142C3.00008 19.8837 3.21079 19.375 3.58586 19L6.00006 16.5858V12C6.00006 10.6443 6.26983 9.35165 6.75861 8.17274L1.79297 3.20711L3.20718 1.79289L30.2072 28.7929L28.793 30.2071ZM8.32422 9.73836L21.5858 23H5.00008V20.4142L7.41428 18C7.78935 17.6249 8.00006 17.1162 8.00006 16.5858V12C8.00006 11.2145 8.11326 10.4555 8.32422 9.73836ZM16.0001 28C14.3432 28 13.0001 26.6568 13.0001 25H19.0001C19.0001 26.6568 17.6569 28 16.0001 28ZM15.9996 1.99999C13.509 1.99999 11.2287 2.91184 9.47844 4.41862L10.7833 5.93434C12.1844 4.72814 14.0057 3.99999 15.9996 3.99999C20.4179 3.99999 23.9996 7.58171 23.9996 12V16.5857C23.9996 17.1162 24.2104 17.6249 24.5854 18L26.9997 20.4142V22H28.9997V20.4142C28.9997 19.8837 28.7889 19.375 28.4139 19L25.9996 16.5857V12C25.9996 6.47714 21.5225 1.99999 15.9996 1.99999Z" fill="black"/>
</svg>

<svg width="32" height="32" viewBox="0 0 32 32" xmlns="http://www.w3.org/2000/svg">
    <path fill-rule="evenodd" d="M28.793 30.207L23.586 25H21a5 5 0 01-10 0H5a2 2 0 01-2-2v-2.586A2 2 0 013.586 19L6 16.586V12c0-1.356.27-2.648.759-3.827L1.793 3.207l1.414-1.414 27 27-1.414 1.414zM8.324 9.738L21.586 23H5v-2.586L7.414 18A2 2 0 008 16.586V12c0-.786.113-1.544.324-2.262zM16 28a3 3 0 01-3-3h6a3 3 0 01-3 3zm0-26c-2.491 0-4.771.912-6.522 2.419l1.305 1.515A8 8 0 0124 12v4.586A2 2 0 0024.586 18L27 20.414V22h2v-1.586A2 2 0 0028.414 19L26 16.586V12c0-5.523-4.477-10-10-10z"/>
</svg>
